X:85
T:Otter's Holt, The
M:C|
R:reel
K:Bm
|: de| fB BA FEFB|~A2FB ABde|fB BA FEFA|BdcA B2 de|
|fB BA FEFB|A2FB ABde|faaf egfe|dBBA B3:|
|: c|~d2fd Adfa|bfaf efdB|d2fd Adfa|bfaf e3f|
|~d2fd Adfa|bfaf efde|fB BA FEFA|BdcA B2 :|
